img/illo-2.svg

<svg fill="none" height="246" viewBox="0 0 495 246" width="495" xmlns="http://www.w3.org/2000/svg"><rect fill="#56ccf2" height="246" rx="12" width="495"/><path d="m237.194 49.1836h65.1079v82.207h-65.1079z" fill="#fff"/><path d="m243.772 55.7607h65.1079v82.207h-65.1079z" fill="#000"/><g stroke="#fff" stroke-linecap="round" stroke-linejoin="round" stroke-width="1.70639"><path d="m236.534 89.8284h-71.627c-19.282 0-34.913 15.6306-34.913 34.9126s15.631 34.913 34.913 34.913h18.686"/><path d="m228.308 80.7512 9.113 9.1133-9.113 9.1133"/><path d="m309.711 89.7292c19.282 0 34.913 15.6308 34.913 34.9128s-15.631 34.913-34.913 34.913h-71.628"/><path d="m246.31 168.632-9.113-9.113 9.113-9.113"/></g><path d="m170.345 107.715h65.1079v82.207h-65.1079z" fill="#fff500" transform="matrix(.96592583 .25881905 -.25881905 .96592583 33.683059 -40.418231)"/><path d="m191.352 132.706v45.912" stroke="#f66" stroke-width=".853196"/><path d="m212.199 155.529h-41.432" stroke="#f66" stroke-width=".853196"/><path d="m0-.426598h25.7552" stroke="#f66" stroke-width=".853196" transform="matrix(-.707107 -.707106 .707107 -.707106 201.3 164.356)"/><path d="m200.483 146.445-18.212 18.212" stroke="#f66" stroke-width=".853196"/><path d="m275.821 70.8631c.191-.9009 1.477-.9009 1.669 0l2.493 11.7225c.137.6423.917.8959 1.405.4566l8.908-8.0181c.685-.6162 1.725.1396 1.35.981l-4.873 10.9494c-.267.5999.216 1.264.869 1.1954l11.919-1.251c.916-.0962 1.313 1.1267.516 1.5873l-10.378 5.9939c-.569.3284-.569 1.1492 0 1.4776l10.378 5.9943c.797.46.4 1.683-.516 1.587l-11.919-1.251c-.653-.069-1.136.595-.869 1.195l4.873 10.95c.375.841-.665 1.597-1.35.981l-8.908-8.018c-.488-.44-1.268-.186-1.405.456l-2.493 11.723c-.192.901-1.478.901-1.669 0l-2.494-11.723c-.136-.642-.917-.896-1.405-.456l-8.908 8.018c-.684.616-1.724-.14-1.35-.981l4.873-10.95c.267-.6-.215-1.264-.868-1.195l-11.92 1.251c-.916.096-1.313-1.127-.515-1.587l10.378-5.9943c.568-.3284.568-1.1492 0-1.4776l-10.378-5.9939c-.798-.4606-.401-1.6835.515-1.5873l11.92 1.251c.653.0686 1.135-.5955.868-1.1954l-4.873-10.9493c-.374-.8415.666-1.5973 1.35-.9811l8.908 8.0181c.488.4393 1.269.1857 1.405-.4566z" fill="#fff500"/><circle cx="237.195" cy="89.959" fill="#fff500" r="5.26125"/><path d="m299.015 159.669s-8.539 8.549-19.072 8.549-19.072-8.549-19.072-8.549 8.539-8.55 19.072-8.55 19.072 8.55 19.072 8.55z" fill="#fff" stroke="#fff" stroke-linecap="round" stroke-linejoin="round" stroke-width="1.70639"/><circle cx="279.943" cy="159.669" fill="#00ba8d" r="7.23422"/><circle cx="279.943" cy="159.669" fill="#000" r="3.94594"/></svg>

<svg width="495" height="246" viewBox="0 0 495 246" fill="none" xmlns="http://www.w3.org/2000/svg">
<rect width="495" height="246" rx="12" fill="#56CCF2"/>
<rect x="237.194" y="49.1836" width="65.1079" height="82.207" fill="white"/>
<rect x="243.772" y="55.7607" width="65.1079" height="82.207" fill="black"/>
<path d="M236.534 89.8284L164.907 89.8284C145.625 89.8284 129.994 105.459 129.994 124.741C129.994 144.023 145.625 159.654 164.907 159.654L183.593 159.654" stroke="white" stroke-width="1.70639" stroke-linecap="round" stroke-linejoin="round"/>
<path d="M228.308 80.7512L237.421 89.8645L228.308 98.9778" stroke="white" stroke-width="1.70639" stroke-linecap="round" stroke-linejoin="round"/>
<path d="M309.711 89.7292C328.993 89.7292 344.624 105.36 344.624 124.642C344.624 143.924 328.993 159.555 309.711 159.555L238.083 159.555" stroke="white" stroke-width="1.70639" stroke-linecap="round" stroke-linejoin="round"/>
<path d="M246.31 168.632L237.197 159.519L246.31 150.406" stroke="white" stroke-width="1.70639" stroke-linecap="round" stroke-linejoin="round"/>
<rect x="170.345" y="107.715" width="65.1079" height="82.207" transform="rotate(15 170.345 107.715)" fill="#FFF500"/>
<line x1="191.352" y1="132.706" x2="191.352" y2="178.618" stroke="#FF6666" stroke-width="0.853196"/>
<line x1="212.199" y1="155.529" x2="170.767" y2="155.529" stroke="#FF6666" stroke-width="0.853196"/>
<line y1="-0.426598" x2="25.7552" y2="-0.426598" transform="matrix(-0.707107 -0.707106 0.707107 -0.707106 201.3 164.356)" stroke="#FF6666" stroke-width="0.853196"/>
<line x1="200.483" y1="146.445" x2="182.271" y2="164.657" stroke="#FF6666" stroke-width="0.853196"/>
<path d="M275.821 70.8631C276.012 69.9622 277.298 69.9622 277.49 70.8631L279.983 82.5856C280.12 83.2279 280.9 83.4815 281.388 83.0422L290.296 75.0241C290.981 74.4079 292.021 75.1637 291.646 76.0051L286.773 86.9545C286.506 87.5544 286.989 88.2185 287.642 88.1499L299.561 86.8989C300.477 86.8027 300.874 88.0256 300.077 88.4862L289.699 94.4801C289.13 94.8085 289.13 95.6293 289.699 95.9577L300.077 101.952C300.874 102.412 300.477 103.635 299.561 103.539L287.642 102.288C286.989 102.219 286.506 102.883 286.773 103.483L291.646 114.433C292.021 115.274 290.981 116.03 290.296 115.414L281.388 107.396C280.9 106.956 280.12 107.21 279.983 107.852L277.49 119.575C277.298 120.476 276.012 120.476 275.821 119.575L273.327 107.852C273.191 107.21 272.41 106.956 271.922 107.396L263.014 115.414C262.33 116.03 261.29 115.274 261.664 114.433L266.537 103.483C266.804 102.883 266.322 102.219 265.669 102.288L253.749 103.539C252.833 103.635 252.436 102.412 253.234 101.952L263.612 95.9577C264.18 95.6293 264.18 94.8085 263.612 94.4801L253.234 88.4862C252.436 88.0256 252.833 86.8027 253.749 86.8989L265.669 88.1499C266.322 88.2185 266.804 87.5544 266.537 86.9545L261.664 76.0052C261.29 75.1637 262.33 74.4079 263.014 75.0241L271.922 83.0422C272.41 83.4815 273.191 83.2279 273.327 82.5856L275.821 70.8631Z" fill="#FFF500"/>
<circle cx="237.195" cy="89.959" r="5.26125" fill="#FFF500"/>
<path d="M299.015 159.669C299.015 159.669 290.476 168.218 279.943 168.218C269.41 168.218 260.871 159.669 260.871 159.669C260.871 159.669 269.41 151.119 279.943 151.119C290.476 151.119 299.015 159.669 299.015 159.669Z" fill="white" stroke="white" stroke-width="1.70639" stroke-linecap="round" stroke-linejoin="round"/>
<circle cx="279.943" cy="159.669" r="7.23422" fill="#00BA8D"/>
<circle cx="279.943" cy="159.669" r="3.94594" fill="black"/>
</svg>
